X:315
T:Grand Quickstep. JaW.315, A
M:2/4
L:1/8
Q:1/4=60
C:"Clarinet Primo"
B:James Winder Ms, Lancashire, 1835-41
R: Quickstep
O:
A:England, Wyresdale Lancashire
Z:vmp.Chris Partington, Aug 2004
K:C
G|cc/c/ ce|cc/c/ ce|ee/e/ eg|ee/e/ eg|
gg(gf)|eeec|d(d/f/) B(B/d/)|Hc3:|
|:z|G" crs"G/G/ (AB)|c"crs"c/c/ (de)|ff ee|ddd g|
c'ba^g|abc' f|ee dd|Hc3:|
|:z|e3d|c3B|AGAB|cBcd|
e3d|c3B|AGAB|Hc3:|
|:e|fG/G/ GG|eG/G/ GG|fG/G/ eG/G/|dG/G/ GG|
dG/G/ GG|eG/G/ GG|fG/G/ eG/G/|b/c'/d'/c'/ b/a/g/f/|
e3d|c3B|AGAB|cBcd|
e3d|c3B|BABc|Hc3:|

